!!!!SEGMENT: pl-wtm--r-1461--009_stefani-jozef--wszechstronne-cwiczenia-glosowe-kwinty-proste.krn
!!!cenid: 18xx:2186
!!!COM: Stefani, Józef
!!!COM-rismid: pe30024097
!!!CDT: 1800/04/16-1876/03/19
!!!CNT: Polish
!!!GTL: Wszechstronne ćwiczenia głosowe
!!!OTL: Kwinty proste
!!!PDT:
!!!AGN: Secular
!!!SMS-siglum: PL-Wtm
!!!SMS-shelfmark: R 1461
!!!SMS-shelfwork: 009 G
!!!SMS-variant:
!!!SMS-altvar:
!!!NIFC-rismid: 1001120710
!!!system-decoration: s1{(s2,s3)}
!!!key:
**kern	**kern	**kern	**text	**text
*part2	*part2	*part1	*part1	*part1
*staff3	*staff2	*staff1	*staff1	*staff1
*Iempty	*Iforte	*Itenor	*	*
*	*I"Fortepian	*I"Sopran/Tenor	*	*
*	*I'pf	*I'S	*	*
*clefF4	*clefG2	*clefG2	*	*
*k[]	*k[]	*k[]	*	*
*C:	*C:	*C:	*	*
*M2/2	*M2/2	*M2/2	*	*
*met(c|)	*met(c|)	*met(c|)	*	*
=1	=1	=1	=1	=1
*2\right	*2\right	*2\right	*	*
!	!	!LO:TX:a:Bi:t=Kwinty proste.	!	!
1C 1CC	2c< 2G< 2E</	2c^>/	do	c.
.	2g 2e 2c/	2g^>/	sol	g.
=2	=2	=2	=2	=2
1F 1FF	2d 2A/	2d/	re	.
.	2a 2d/	2a/	la	.
=3	=3	=3	=3	=3
1G 1GG	2e 2B/	2e/	mi	.
.	2b 2e/	2b/	si	.
=4	=4	=4	=4	=4
1A 1AA	2f 2c/	2f/	fa	.
.	2cc 2f/	2cc\	do	.
=5	=5	=5	=5	=5
1B 1BB	2g 2d/	2g/	sol	.
.	2dd 2g\	2dd\	re	.
=6	=6	=6	=6	=6
1c 1C	2a 2e/	2a/	la	.
.	2ee 2a\	2ee\	mi	.
=7	=7	=7	=7	=7
1d 1D	2b 2f/	2b\	si	.
.	2ff 2b\	2ff\	fa	.
!!LO:LB:g=original
=8	=8	=8	=8	=8
1e 1E	2cc 2g/	2cc\	do	.
.	2gg 2cc\	2gg\	sol	.
=9	=9	=9	=9	=9
1f 1F	2dd 2a\	2dd\	re	.
.	2aa 2dd\	2aa\	la	.
=10||	=10||	=10||	=10||	=10||
1f 1F	2aa 2dd\	2aa\	la	.
.	2dd 2a\	2dd\	re	.
=11	=11	=11	=11	=11
1e 1E	2gg 2cc\	2gg\	sol	.
.	2cc 2g/	2cc\	do	.
=12	=12	=12	=12	=12
1d 1D	2ff 2b\	2ff\	fa	.
.	2b 2f/	2b\	si	.
=13	=13	=13	=13	=13
1c 1C	2ee 2a\	2ee\	mi	.
.	2a 2e/	2a/	la	.
=14	=14	=14	=14	=14
1B 1BB	2dd 2g\	2dd\	re	.
.	2g 2d/	2g/	sol	.
!!LO:LB:g=original
=15	=15	=15	=15	=15
1A 1AA	2cc 2f/	2cc\	do	.
.	2f 2c/	2f/	fa	.
=16	=16	=16	=16	=16
1G 1GG	2b 2e/	2b\	si	.
.	2e 2B/	2e/	mi	.
=17	=17	=17	=17	=17
1F 1FF	2a 2d/	2a/	la	.
.	2d 2A/	2d/	re	.
=18	=18	=18	=18	=18
2E 2EE/	2g 2c/	2g/	sol	.
2C 2CC\	2c 2G< 2E</	2c/	do	.
=19	=19	=19	=19	=19
*	*^	*	*	*
2FF 2FFF\	2c 2A</	1d	1d	re	.
2GG 2GGG\	2B 2G</	.	.	.	.
*	*v	*v	*	*	*
=20	=20	=20	=20	=20
2.C 2.CC/	2.c 2.G< 2.E</	2.c/	do.	.
4r	4r	4r	.	.
==	==	==	==	==
*-	*-	*-	*-	*-
!!title: @{OTL};
!!!RDF**kern: > = above
!!!RDF**kern: < = below
!!!RDF**kern: | = vertical stroke
!!!RDF**kern: N = linked
!!!RDF**kern: i = editorial accidental
!!!EED: Wojciech Jakubiak-Danek
!!!EST: 2021-06-03
!!!URL-scan: http://repozytorium.nifc.pl/skany/pl-wtm-nut--r1461
!!!ONB-nifc: UWAGA: skan 0007, s. 11
!!!AIN: 1 empty 1 tenor
!!!ENC: Tomasz Grochalski
!!!END: 2021-05-18
